src/assets/wave.svg

<?xml version="1.0" encoding="UTF-8"?>
<svg width="52px" height="28px" viewBox="0 0 52 28" version="1.1" xmlns="http://www.w3.org/2000/svg" xmlns:xlink="http://www.w3.org/1999/xlink">
    <title>折线图</title>
    <g id="1" stroke="none" stroke-width="1" fill="none" fill-rule="evenodd">
        <g id="首页1" transform="translate(-34.000000, -322.000000)" fill="#FFAC3D" fill-rule="nonzero">
            <g id="折线图" transform="translate(34.000000, 322.000000)">
                <path d="M0,14.000756 C0,13.58325 0.335786438,13.2447945 0.75,13.2447945 L14.884,13.2447945 C15.2151198,13.2449179 15.5071375,13.0261608 15.6025,12.70655 L19.063,1.07835145 C19.2530551,0.438392112 19.8372519,1.96952395e-14 20.5,1.96952395e-14 C21.1627481,1.96952395e-14 21.7469449,0.438392112 21.937,1.07835145 L29.5,26.4877267 L32.9605,14.8610401 C33.2454997,13.9010098 34.1218149,13.2433131 35.116,13.2432826 L51.25,13.2432826 C51.6642136,13.2432826 52,13.5817381 52,13.999244 C52,14.41675 51.6642136,14.7552055 51.25,14.7552055 L35.116,14.7552055 C34.7848802,14.7550821 34.4928625,14.9738392 34.3975,15.29345 L30.937,26.9216486 C30.7469449,27.5616079 30.1627481,28 29.5,28 C28.8372519,28 28.2530551,27.5616079 28.063,26.9216486 L20.5,1.5122733 L17.0395,13.1404719 C16.7545003,14.1005021 15.8781851,14.7581989 14.884,14.7582293 L0.75,14.7582293 C0.335786438,14.7567174 0,14.4182619 0,14.000756 Z" id="路径"></path>
            </g>
        </g>
    </g>
</svg>

<svg width="52" height="28" viewBox="0 0 52 28" xmlns="http://www.w3.org/2000/svg"><path d="M0 14c0-.417.336-.755.75-.755h14.134a.75.75 0 0 0 .718-.538l3.461-11.629C19.253.438 19.837 0 20.5 0s1.247.438 1.437 1.078l7.563 25.41 3.46-11.627a2.252 2.252 0 0 1 2.156-1.618H51.25c.414 0 .75.339.75.756a.753.753 0 0 1-.75.756H35.116a.75.75 0 0 0-.718.538l-3.461 11.629A1.502 1.502 0 0 1 29.5 28a1.502 1.502 0 0 1-1.437-1.078L20.5 1.512 17.04 13.14a2.252 2.252 0 0 1-2.156 1.618H.75a.755.755 0 0 1-.75-.757z" fill="#FFAC3D"/></svg>
